dist/images/svg/network.svg

<svg width="25" height="25" viewBox="0 0 25 25" fill="none" xmlns="http://www.w3.org/2000/svg">
<path d="M15.625 2.08337H9.375V8.33337H15.625V2.08337Z" stroke="#FF862F" stroke-width="2" stroke-linecap="round" stroke-linejoin="round"/>
<path d="M22.917 16.6666H16.667V22.9166H22.917V16.6666Z" stroke="#FF862F" stroke-width="2" stroke-linecap="round" stroke-linejoin="round"/>
<path d="M8.33301 16.6666H2.08301V22.9166H8.33301V16.6666Z" stroke="#FF862F" stroke-width="2" stroke-linecap="round" stroke-linejoin="round"/>
<path d="M12.4997 12.5H19.7913V16.6667M12.4997 8.33337V12.5V8.33337ZM12.4997 12.5H5.20801V16.6667L12.4997 12.5Z" stroke="#FF862F" stroke-width="2" stroke-linecap="round" stroke-linejoin="round"/>
</svg>

<svg width="25" height="25" fill="none" xmlns="http://www.w3.org/2000/svg"><path d="M15.625 2.083h-6.25v6.25h6.25v-6.25ZM22.917 16.667h-6.25v6.25h6.25v-6.25ZM8.333 16.667h-6.25v6.25h6.25v-6.25ZM12.5 12.5h7.291v4.167M12.5 8.333V12.5 8.333Zm0 4.167H5.208v4.167L12.5 12.5Z" stroke="#FF862F" stroke-width="2" stroke-linecap="round" stroke-linejoin="round"/></svg>
